X: 35806
T: Salt
R: polka
M: 2/4
K: Aminor
|:A>B cG|AB cd|ed d2|d/e/d/c/ BA|GG/A/ BA|
ed d2|1 g/e/d/c/ BE|DE Bc:|2 g/e/d/c/ BA|GA AB/c/||
|:d>e fd|fg ed|cB/c/ d2|f>g ea|ae fe|
dA cd|1 g/e/d/c/ B^F|G2 A2:|2 g/e/d/c/ BE|DE Bc||

